static/assets/images/logos/Akkodis.svg

<?xml version="1.0" encoding="utf-8"?>
<!-- Generator: Adobe Illustrator 24.3.0, SVG Export Plug-In . SVG Version: 6.00 Build 0)  -->
<svg version="1.1" xmlns="http://www.w3.org/2000/svg" xmlns:xlink="http://www.w3.org/1999/xlink" x="0px" y="0px"
	 viewBox="0 0 352.7 104.83" style="enable-background:new 0 0 352.7 104.83;" xml:space="preserve">
<style type="text/css">
	.st0{fill:#FFB81C;}
	.st1{fill:#001F33;}
</style>
<g id="Logo">
	<g>
		<g>
			<g>
				<polygon class="st0" points="165.05,35.11 151.56,35.11 120.6,57.64 112.8,50.49 133.76,35.11 120.27,35.11 95.6,53.06 
					95.6,35.11 86.7,35.11 86.7,69.72 95.6,69.72 95.6,63.09 106.23,55.33 121.46,69.72 133.76,69.72 126.7,63.23 137.52,55.33 
					152.74,69.72 165.05,69.72 144.09,50.49 				"/>
				<path class="st1" d="M164.19,52.37c0-11.47,6.53-17.75,21.75-17.75c15.18,0,21.75,6.33,21.75,17.75
					c0,11.47-6.57,17.85-21.75,17.85C170.71,70.21,164.19,63.89,164.19,52.37z M198.79,52.37c0-7.02-3.56-10.28-12.85-10.28
					c-9.29,0-12.85,3.21-12.85,10.28c0,7.12,3.61,10.38,12.85,10.38C195.18,62.75,198.79,59.44,198.79,52.37z"/>
				<path class="st0" d="M268.63,42.58h-8.9v-7.46h8.9V42.58z"/>
				<path class="st1" d="M268.63,69.72h-8.9V46.96h8.9V69.72z"/>
				<g>
					<path class="st1" d="M295.99,48.86c-10.09-0.59-12.16-1.09-12.16-3.76c0-2.57,2.08-3.41,10.83-3.41
						c7.89,0,11.82,0.69,12.8,3.26h9.06c-0.89-7.44-8.61-10.33-20.87-10.33c-12.95,0-20.71,2.42-20.71,10.04
						c0,7.76,5.98,10.13,21.06,10.83c11.22,0.54,13.2,1.04,13.2,3.91c0,2.72-2.82,3.76-12.16,3.76c-9.52,0-13.11-1.2-14-3.78h-9.05
						c0.86,8.68,9.15,10.85,22.56,10.85c12.8,0,21.55-1.88,21.55-11.12C318.08,50.34,309.63,49.6,295.99,48.86z"/>
				</g>
				<path class="st1" d="M234.5,62.25c6.72,0,11.27-1.43,11.27-9.84s-4.55-9.84-11.27-9.84h-12.85v15.29h-8.9V35.11h25.11
					c8.95,0,16.81,5.54,16.81,17.3s-7.86,17.3-16.81,17.3h-25.11v-7.46H234.5z"/>
			</g>
		</g>
		<g>
			<path class="st1" d="M46.15,69.72L34.62,69.7l31.23-34.6l14.65,0.02v34.6h-8.91V41.69L46.15,69.72z"/>
		</g>
	</g>
</g>
<g id="Guides">
	<g>
	</g>
	<g>
	</g>
	<g>
	</g>
	<g>
	</g>
</g>
</svg>

<?xml version="1.0" encoding="UTF-8" standalone="no"?>
<!DOCTYPE svg PUBLIC "-//W3C//DTD SVG 1.1//EN" "http://www.w3.org/Graphics/SVG/1.1/DTD/svg11.dtd">
<svg width="100%" height="100%" viewBox="0 0 284 36" version="1.1" xmlns="http://www.w3.org/2000/svg" xmlns:xlink="http://www.w3.org/1999/xlink" xml:space="preserve" xmlns:serif="http://www.serif.com/" style="fill-rule:evenodd;clip-rule:evenodd;stroke-linejoin:round;stroke-miterlimit:2;">
    <g transform="matrix(1,0,0,1,-34.62,-34.62)">
        <g>
            <g>
                <g>
                    <path d="M165.05,35.11L151.56,35.11L120.6,57.64L112.8,50.49L133.76,35.11L120.27,35.11L95.6,53.06L95.6,35.11L86.7,35.11L86.7,69.72L95.6,69.72L95.6,63.09L106.23,55.33L121.46,69.72L133.76,69.72L126.7,63.23L137.52,55.33L152.74,69.72L165.05,69.72L144.09,50.49L165.05,35.11Z" style="fill:rgb(255,184,28);fill-rule:nonzero;"/>
                    <path d="M164.19,52.37C164.19,40.9 170.72,34.62 185.94,34.62C201.12,34.62 207.69,40.95 207.69,52.37C207.69,63.84 201.12,70.22 185.94,70.22C170.71,70.21 164.19,63.89 164.19,52.37ZM198.79,52.37C198.79,45.35 195.23,42.09 185.94,42.09C176.65,42.09 173.09,45.3 173.09,52.37C173.09,59.49 176.7,62.75 185.94,62.75C195.18,62.75 198.79,59.44 198.79,52.37Z" style="fill:rgb(0,31,51);fill-rule:nonzero;"/>
                    <rect x="259.73" y="35.12" width="8.9" height="7.46" style="fill:rgb(255,184,28);fill-rule:nonzero;"/>
                    <rect x="259.73" y="46.96" width="8.9" height="22.76" style="fill:rgb(0,31,51);fill-rule:nonzero;"/>
                    <g>
                        <path d="M295.99,48.86C285.9,48.27 283.83,47.77 283.83,45.1C283.83,42.53 285.91,41.69 294.66,41.69C302.55,41.69 306.48,42.38 307.46,44.95L316.52,44.95C315.63,37.51 307.91,34.62 295.65,34.62C282.7,34.62 274.94,37.04 274.94,44.66C274.94,52.42 280.92,54.79 296,55.49C307.22,56.03 309.2,56.53 309.2,59.4C309.2,62.12 306.38,63.16 297.04,63.16C287.52,63.16 283.93,61.96 283.04,59.38L273.99,59.38C274.85,68.06 283.14,70.23 296.55,70.23C309.35,70.23 318.1,68.35 318.1,59.11C318.08,50.34 309.63,49.6 295.99,48.86Z" style="fill:rgb(0,31,51);fill-rule:nonzero;"/>
                    </g>
                    <path d="M234.5,62.25C241.22,62.25 245.77,60.82 245.77,52.41C245.77,44 241.22,42.57 234.5,42.57L221.65,42.57L221.65,57.86L212.75,57.86L212.75,35.11L237.86,35.11C246.81,35.11 254.67,40.65 254.67,52.41C254.67,64.17 246.81,69.71 237.86,69.71L212.75,69.71L212.75,62.25L234.5,62.25Z" style="fill:rgb(0,31,51);fill-rule:nonzero;"/>
                </g>
            </g>
            <g>
                <path d="M46.15,69.72L34.62,69.7L65.85,35.1L80.5,35.12L80.5,69.72L71.59,69.72L71.59,41.69L46.15,69.72Z" style="fill:rgb(0,31,51);fill-rule:nonzero;"/>
            </g>
        </g>
    </g>
</svg>
